packages/icons/svg/Navigation_Display_DisplayMobile--Horizontal_48px.svg

<svg xmlns="http://www.w3.org/2000/svg" viewBox="0 0 48 48"><path d="M18 4H6a2 2 0 00-2 2v12a2 2 0 002 2h12a2 2 0 002-2V6a2 2 0 00-2-2zm-1 13H7V7h10zM27.5 9h15a1.5 1.5 0 000-3h-15a1.5 1.5 0 000 3zM42.5 15h-15a1.5 1.5 0 000 3h15a1.5 1.5 0 000-3zM18 28H6a2 2 0 00-2 2v12a2 2 0 002 2h12a2 2 0 002-2V30a2 2 0 00-2-2zm-1 13H7V31h10zM42.5 30h-15a1.5 1.5 0 000 3h15a1.5 1.5 0 000-3zM42.5 39h-15a1.5 1.5 0 000 3h15a1.5 1.5 0 000-3z"/></svg>

<svg xmlns="http://www.w3.org/2000/svg" viewBox="0 0 48 48"><defs></defs><g id="Icon"><path  d="M18,4H6A2,2,0,0,0,4,6V18a2,2,0,0,0,2,2H18a2,2,0,0,0,2-2V6A2,2,0,0,0,18,4ZM17,17H7V7H17Z"/><path  d="M27.5,9h15a1.5,1.5,0,0,0,0-3h-15a1.5,1.5,0,0,0,0,3Z"/><path  d="M42.5,15h-15a1.5,1.5,0,0,0,0,3h15a1.5,1.5,0,0,0,0-3Z"/><path  d="M18,28H6a2,2,0,0,0-2,2V42a2,2,0,0,0,2,2H18a2,2,0,0,0,2-2V30A2,2,0,0,0,18,28ZM17,41H7V31H17Z"/><path  d="M42.5,30h-15a1.5,1.5,0,0,0,0,3h15a1.5,1.5,0,0,0,0-3Z"/><path  d="M42.5,39h-15a1.5,1.5,0,0,0,0,3h15a1.5,1.5,0,0,0,0-3Z"/></g></svg>
